symbolic/64x64/places/folder-oomox-android.svg

<svg xmlns="http://www.w3.org/2000/svg" width="64" height="64" version="1">
 <rect style="opacity:0.2" width="56" height="36" x="4" y="22" rx="2.8" ry="2.8"/>
 <path style="fill:#1f252a" d="M 4,46.2 C 4,47.751 5.2488,49 6.8,49 H 57.2 C 58.751,49 60,47.751 60,46.2 V 15.8 C 60,14.249 58.751,13 57.2,13 H 32 C 27.8,13 26.4,7 22.2,7 H 6.8 C 5.2488,7 4,8.2488 4,9.8"/>
 <rect style="opacity:0.2" width="56" height="36" x="4" y="20" rx="2.8" ry="2.8"/>
 <rect style="fill:#e4e4e4" width="48" height="22" x="8" y="16" rx="2.8" ry="2.8"/>
 <rect style="fill:#323a41" width="56" height="36" x="4" y="21" rx="2.8" ry="2.8"/>
 <path style="opacity:0.1;fill:#ffffff" d="M 6.8008,7 C 5.2496,7 4,8.2496 4,9.8008 V 10.801 C 4,9.2496 5.2496,8 6.8008,8 H 22.199 C 26.399,8 27.8,14 32,14 H 57.199 C 58.75,14 60,15.25 60,16.801 V 15.801 C 60,14.25 58.75,13 57.199,13 H 32 C 27.8,13 26.399,7 22.199,7 Z"/>
 <path style="fill:#1f252a" d="m23.957031 32.988281a1.0001 1.0001 0 0 0-0.771484 1.59375l2.121094 2.96875c-1.829314 1.630264-3.057929 3.914325-3.304688 6.486328-0.045933 0.962466 0.96875 0.962891 0.96875 0.962891h18.033203s1.044802 7.66e-4 0.994141-1.009766c-0.257459-2.553668-1.481414-4.823103-3.300781-6.443359l2.117187-2.964844a1.0001 1.0001 0 0 0-0.800781-1.59375 1.0001 1.0001 0 0 0-0.828125 0.429688l-2.113281 2.957031c-1.489269-0.869243-3.219153-1.375-5.070313-1.375-1.853252 0-3.583821 0.505888-5.074219 1.376953l-2.113281-2.958984a1.0001 1.0001 0 0 0-0.857422-0.429688z"/>
 <circle style="fill:#323a41" cx="27" cy="41" r="1"/>
 <circle style="fill:#323a41" cx="-37" cy="41" r="1" transform="scale(-1,1)"/>
</svg>

<svg xmlns="http://www.w3.org/2000/svg" width="64" height="64" version="1"><rect style="opacity:.2" width="56" height="36" x="4" y="22" rx="2.8" ry="2.8"/><path style="fill:#1f252a" d="M4 46.2C4 47.751 5.249 49 6.8 49h50.4c1.551 0 2.8-1.249 2.8-2.8V15.8c0-1.551-1.249-2.8-2.8-2.8H32c-4.2 0-5.6-6-9.8-6H6.8A2.794 2.794 0 0 0 4 9.8"/><rect style="opacity:.2" width="56" height="36" x="4" y="20" rx="2.8" ry="2.8"/><rect style="fill:#e4e4e4" width="48" height="22" x="8" y="16" rx="2.8" ry="2.8"/><rect style="fill:#323a41" width="56" height="36" x="4" y="21" rx="2.8" ry="2.8"/><path style="opacity:.1;fill:#fff" d="M6.8 7C5.25 7 4 8.25 4 9.8v1.001A2.795 2.795 0 0 1 6.8 8H22.2c4.2 0 5.601 6 9.801 6h25.199A2.796 2.796 0 0 1 60 16.801v-1A2.796 2.796 0 0 0 57.199 13H32c-4.2 0-5.601-6-9.801-6z"/><path style="fill:#1f252a" d="M23.957 32.988a1 1 0 0 0-.771 1.594l2.12 2.969a9.956 9.956 0 0 0-3.304 6.486c-.046.963.969.963.969.963h18.033s1.045 0 .994-1.01a9.961 9.961 0 0 0-3.3-6.443l2.116-2.965a1 1 0 0 0-.8-1.594 1 1 0 0 0-.828.43l-2.114 2.957A10.025 10.025 0 0 0 32.002 35a10.02 10.02 0 0 0-5.074 1.377l-2.114-2.959a1 1 0 0 0-.857-.43z"/><circle style="fill:#323a41" cx="27" cy="41" r="1"/><circle style="fill:#323a41" cx="-37" cy="41" r="1" transform="scale(-1 1)"/></svg>
